!!!!SEGMENT:Kanjincho_kaete.krn
!!!OTL:勧進帳（替手）
!!!OPR:Eiga Banso Kyokusyu,jidai-geki,kouhen
!!!YOY:1928
!!!ONB:Dairantou
**kern
*clefG2
*k[f#]
*e:
*M2/4
=1
16eeLL
16ee
16ff#
16eeJJ
8ff#L
16ggL
16ff#JJ
=2
16bLL
16ff#
16gg
16ff#JJ
16ff#LL
16ff#
16ff#
16ff#JJ
=3
16eeLL
16ee
16ff#
16eeJJ
8ccL
8bJ
=4
16aLL
16a
16b
16aJJ
8bL
16eeL
16eeJJ
=5
16ff#LL
16ee
16b
16cc#X
16cc#
16cc#JJ
=6||
*M3/4
16cc#XLL
16cc#
16cc#
16cc#JJ
16cc#LL
16b
16g
16f#JJ
16cc#LL
16b
16g
16f#JJ
=7||
*M2/4
16f#LL
16dd
16dd
16cc#XJJ
16cc#LL
16b
16g
16f#JJ
=8
16cc#XLL
16b
16g
16gJJ
16gLL
16f#JJ
8r
=9
16bbLL
16bb
16bb
16bbJJ
16bbLL
16bb
16bb
16bbJJ
=10
16bLL 16bb
16b 16bb
16b 16bb
16bJJ 16bb
16cc#XLL 16ccc#X
16b 16bb
16g 16gg
16gJJ 16gg
=11
16ggLL
16ff#
16ee
16eeJJ
16ff#LL
16ee
16cc
16ccJJ
=12
16ccLL
16b
16b
16gJJ
8f#
8r
==
*-
!!!ENC: Yukiko Yoden
!!!END: 2023/06/11
